X:349
T: ROSA WILLEN WIJ DANSEN
N: E0976
O: Europa, Mitteleuropa, Deutschland
R: Tanz - Lied, Reigen
M: 6/8
L: 1/8
K: A
 | A2eeed | e3=c2
c | d3=c2c | d3=c3
A2ccBA | =G2EE3
AB=cB2A | =G2EE2
e | e3B3 | A3-A2z

